assets/layers/bicycle_tube_vending_machine/tube.svg

<?xml version="1.0" encoding="UTF-8" standalone="no"?>
<!-- Created with Inkscape (http://www.inkscape.org/) -->

<svg
        xmlns:dc="http://purl.org/dc/elements/1.1/"
        xmlns:cc="http://creativecommons.org/ns#"
        xmlns:rdf="http://www.w3.org/1999/02/22-rdf-syntax-ns#"
        xmlns:sodipodi="http://sodipodi.sourceforge.net/DTD/sodipodi-0.dtd"
        xmlns:inkscape="http://www.inkscape.org/namespaces/inkscape"
        xmlns="http://www.w3.org/2000/svg"
        width="51.841461mm"
        height="36.68618mm"
        viewBox="0 0 51.841461 36.68618"
        version="1.1"
        id="svg8"
        inkscape:version="0.92.5 (2060ec1f9f, 2020-04-08)"
        sodipodi:docname="tube.svg">
    <defs
            id="defs2"/>
    <sodipodi:namedview
            id="base"
            pagecolor="#ffffff"
            bordercolor="#666666"
            borderopacity="1.0"
            inkscape:pageopacity="0.0"
            inkscape:pageshadow="2"
            inkscape:zoom="1.6479131"
            inkscape:cx="31.112488"
            inkscape:cy="69.182578"
            inkscape:document-units="mm"
            inkscape:current-layer="layer2"
            showgrid="false"
            showguides="true"
            inkscape:guide-bbox="true"
            inkscape:object-nodes="false"
            inkscape:snap-nodes="false"
            inkscape:snap-others="false"
            inkscape:window-width="597"
            inkscape:window-height="464"
            inkscape:window-x="628"
            inkscape:window-y="207"
            inkscape:window-maximized="0">
        <sodipodi:guide
                position="40.514968,7.9968472"
                orientation="1,0"
                id="guide839"
                inkscape:locked="false"/>
        <sodipodi:guide
                position="46.073173,12.328557"
                orientation="0,1"
                id="guide841"
                inkscape:locked="false"/>
    </sodipodi:namedview>
    <metadata
            id="metadata5">
        <rdf:RDF>
            <cc:Work
                    rdf:about="">
                <dc:format>image/svg+xml</dc:format>
                <dc:type
                        rdf:resource="http://purl.org/dc/dcmitype/StillImage"/>
                <dc:title></dc:title>
            </cc:Work>
        </rdf:RDF>
    </metadata>
    <g
            inkscape:groupmode="layer"
            id="layer2"
            inkscape:label="bg"/>
    <g
            inkscape:label="Layer 1"
            inkscape:groupmode="layer"
            id="layer1"
            transform="translate(-8.5350726,-162.7447)">
        <path
                style="fill:none;fill-opacity:1;stroke:#000000;stroke-width:1.68589711;stroke-linecap:round;stroke-linejoin:round;stroke-miterlimit:4;stroke-dasharray:none;stroke-opacity:1"
                d="m 52.819614,187.17927 c -1e-6,1.41536 -1.61917,2.56667 -3.634782,2.60026 -0.03011,5e-4 -28.521622,7e-4 -28.551907,7e-4 -2.057472,0 -3.725384,-1.16451 -3.725385,-2.60101 10e-7,-1.4365 1.667913,-2.60101 3.725385,-2.60101 0.04052,0 28.542192,4.5e-4 28.582402,10e-4 2.001425,0.0447 3.604287,1.19146 3.604288,2.59967 z"
                id="path837"
                inkscape:connector-curvature="0"
                sodipodi:nodetypes="csscsscc"
                inkscape:export-xdpi="244.98"
                inkscape:export-ydpi="244.98"/>
        <path
                style="fill:none;fill-opacity:1;stroke:#000000;stroke-width:1.92546511;stroke-linecap:round;stroke-linejoin:round;stroke-miterlimit:4;stroke-dasharray:none;stroke-opacity:1"
                d="m 56.121413,187.10232 c -3e-6,3.58651 -3.113572,6.50133 -6.980276,6.56424 -0.04246,6.9e-4 -28.995042,9.3e-4 -29.037689,9.3e-4 -3.925611,0 -7.107948,-2.93938 -7.107951,-6.56528 -2e-6,-3.6259 3.182336,-6.56529 7.107951,-6.56529 0.05225,0 29.014378,5.2e-4 29.066356,0.002 3.853419,0.0768 6.951609,2.98607 6.951609,6.56372 z"
                id="path847"
                inkscape:connector-curvature="0"
                sodipodi:nodetypes="ssssssss"
                inkscape:export-xdpi="244.98"
                inkscape:export-ydpi="244.98"/>
        <path
                style="fill:none;fill-opacity:1;stroke:#000000;stroke-width:2;stroke-linecap:round;stroke-linejoin:round;stroke-miterlimit:4;stroke-dasharray:none;stroke-opacity:1"
                d="m 59.376534,187.10233 c -3e-6,5.69942 -4.589909,10.32682 -10.274983,10.38745 -0.03764,4e-4 -29.140686,6e-4 -29.178423,6e-4 -5.737163,0 -10.3880526,-4.65089 -10.3880554,-10.38805 -2.8e-6,-5.73717 4.6508884,-10.38806 10.3880554,-10.38806 0.06153,0 29.188289,5.3e-4 29.249565,0.002 5.652179,0.0983 10.203844,4.71082 10.203841,10.38646 z"
                id="path849"
                inkscape:connector-curvature="0"
                sodipodi:nodetypes="sssssss"
                inkscape:export-xdpi="244.98"
                inkscape:export-ydpi="244.98"/>
        <rect
                style="fill:#000000;fill-opacity:1;stroke:#ffffff;stroke-width:0.5;stroke-linecap:round;stroke-linejoin:round;stroke-miterlimit:4;stroke-dasharray:none;stroke-opacity:1"
                id="rect910"
                width="4.7765589"
                height="24.04335"
                x="41.744713"
                y="175.13753"
                inkscape:export-xdpi="244.98"
                inkscape:export-ydpi="244.98"/>
        <rect
                style="fill:#000000;fill-opacity:1;stroke:none;stroke-width:1.56908238;stroke-linecap:round;stroke-linejoin:round;stroke-miterlimit:4;stroke-dasharray:none;stroke-opacity:1"
                id="rect924"
                width="1.4863302"
                height="5.9807334"
                x="31.488573"
                y="169.11668"
                inkscape:export-xdpi="244.98"
                inkscape:export-ydpi="244.98"/>
        <path
                style="fill:#000000;fill-opacity:1;stroke:none;stroke-width:2;stroke-linecap:round;stroke-linejoin:round;stroke-miterlimit:4;stroke-dasharray:none;stroke-opacity:1"
                d="m 31.188119,163.65776 c 0.228413,-0.98336 1.556534,-1.43106 1.966818,0 l 0.96334,4.97725 h -3.612524 z"
                id="rect936"
                inkscape:connector-curvature="0"
                sodipodi:nodetypes="ccccc"
                inkscape:export-xdpi="244.98"
                inkscape:export-ydpi="244.98"/>
    </g>
</svg>

<?xml version="1.0" encoding="UTF-8" standalone="yes"?>
<svg xmlns="http://www.w3.org/2000/svg" xmlns:xlink="http://www.w3.org/1999/xlink" width="373px" height="264px" viewBox="0 0 373 264" version="1.1">
  <g id="surface1">
    <path style="fill:none;stroke-width:1.685897;stroke-linecap:round;stroke-linejoin:round;stroke:rgb(0%,0%,0%);stroke-opacity:1;stroke-miterlimit:4;" d="M 52.819462 187.17936 C 52.819462 188.594501 51.200611 189.745829 49.184795 189.779484 C 49.154887 189.780027 20.66321 189.780027 20.632758 189.780027 C 18.575615 189.780027 16.907279 188.615671 16.907279 187.17936 C 16.907279 185.742506 18.575615 184.57815 20.632758 184.57815 C 20.673542 184.57815 49.175007 184.578693 49.215247 184.579236 C 51.216924 184.623747 52.819462 185.770733 52.819462 187.178817 Z M 52.819462 187.17936 " transform="matrix(7.18343,0,0,7.19617,-61.01085,-1171.138615)"/>
    <path style="fill:none;stroke-width:1.925465;stroke-linecap:round;stroke-linejoin:round;stroke:rgb(0%,0%,0%);stroke-opacity:1;stroke-miterlimit:4;" d="M 56.121332 187.102279 C 56.121332 190.688714 53.007612 193.603676 49.141293 193.666643 C 49.098877 193.667186 20.14607 193.667729 20.103654 193.667729 C 16.178062 193.667729 12.995281 190.72834 12.995281 187.102279 C 12.995281 183.476218 16.178062 180.536829 20.103654 180.536829 C 20.155858 180.536829 49.11791 180.537372 49.169569 180.539001 C 53.023382 180.615539 56.121332 183.525073 56.121332 187.102822 Z M 56.121332 187.102279 " transform="matrix(7.18343,0,0,7.19617,-61.01085,-1171.138615)"/>
    <path style="fill:none;stroke-width:2;stroke-linecap:round;stroke-linejoin:round;stroke:rgb(0%,0%,0%);stroke-opacity:1;stroke-miterlimit:4;" d="M 59.376436 187.102279 C 59.376436 192.801925 54.786881 197.428952 49.101596 197.489749 C 49.064075 197.490291 19.960638 197.490291 19.923117 197.490291 C 14.186173 197.490291 9.53517 192.83938 9.53517 187.102279 C 9.53517 181.365178 14.186173 176.714267 19.923117 176.714267 C 19.984565 176.714267 49.111384 176.71481 49.172832 176.716438 C 54.824946 176.814689 59.376436 181.42706 59.376436 187.102822 Z M 59.376436 187.102279 " transform="matrix(7.18343,0,0,7.19617,-61.01085,-1171.138615)"/>
    <path style="fill-rule:nonzero;fill:rgb(0%,0%,0%);fill-opacity:1;stroke-width:0.5;stroke-linecap:round;stroke-linejoin:round;stroke:rgb(100%,100%,100%);stroke-opacity:1;stroke-miterlimit:4;" d="M 41.744713 175.137365 L 46.521331 175.137365 L 46.521331 199.180644 L 41.744713 199.180644 Z M 41.744713 175.137365 " transform="matrix(7.18343,0,0,7.19617,-61.01085,-1171.138615)"/>
    <path style=" stroke:none;fill-rule:nonzero;fill:rgb(0%,0%,0%);fill-opacity:1;" d="M 165.183594 45.855469 L 175.863281 45.855469 L 175.863281 88.890625 L 165.183594 88.890625 Z M 165.183594 45.855469 "/>
    <path style=" stroke:none;fill-rule:nonzero;fill:rgb(0%,0%,0%);fill-opacity:1;" d="M 163.027344 6.570312 C 164.667969 -0.507812 174.207031 -3.726562 177.15625 6.570312 L 184.074219 42.386719 L 158.125 42.386719 Z M 163.027344 6.570312 "/>
  </g>
</svg>
